img/service__09.svg

<svg width="38" height="38" viewBox="0 0 38 38" fill="none" xmlns="http://www.w3.org/2000/svg">
<g clip-path="url(#clip0)">
<path d="M22.6961 13.2532C24.7169 13.7947 25.9206 15.8795 25.3791 17.9004C25.2249 18.4758 25.3041 19.0767 25.6019 19.5925C25.8997 20.1083 26.3805 20.4773 26.9559 20.6315C27.1485 20.6831 27.3419 20.7077 27.5325 20.7077C28.517 20.7077 29.4204 20.0497 29.6869 19.0547C30.8649 14.6583 28.2467 10.1234 23.8503 8.94538C22.6624 8.62715 21.4375 9.33441 21.1192 10.5221C20.801 11.7097 21.5084 12.9349 22.6961 13.2532ZM22.553 10.9064C22.6045 10.7139 22.7279 10.5532 22.9005 10.4536C23.0154 10.3872 23.1429 10.3534 23.272 10.3534C23.3368 10.3534 23.402 10.3619 23.4663 10.3791C27.072 11.3453 29.2195 15.0648 28.2533 18.6706C28.1469 19.0677 27.7371 19.3042 27.3401 19.1978C27.1478 19.1463 26.9869 19.0229 26.8873 18.8504C26.7878 18.678 26.7613 18.477 26.8128 18.2846C27.566 15.4732 25.8917 12.573 23.0803 11.8196C22.6832 11.7131 22.4466 11.3034 22.553 10.9064Z" fill="white"/>
<path d="M25.4096 3.12699C24.2222 2.80883 22.9968 3.5161 22.6785 4.70383C22.5243 5.27914 22.6035 5.88013 22.9013 6.39592C23.1991 6.91178 23.68 7.2807 24.2553 7.43485C29.4848 8.83617 32.5993 14.2307 31.1982 19.4603C31.044 20.0357 31.1231 20.6366 31.421 21.1524C31.7187 21.6682 32.1995 22.0372 32.7749 22.1913C32.9675 22.2429 33.161 22.2675 33.3516 22.2675C34.336 22.2675 35.2393 21.6096 35.506 20.6145C37.5437 13.0095 33.0146 5.1647 25.4096 3.12699ZM34.0723 20.2303C33.9659 20.6275 33.5565 20.864 33.1591 20.7575C32.9667 20.7059 32.8059 20.5826 32.7064 20.4101C32.7064 20.4101 32.7064 20.4102 32.7064 20.4101C32.6068 20.2376 32.5803 20.0366 32.6318 19.8443C34.2448 13.8242 30.6595 7.61415 24.6395 6.00102C24.2423 5.8946 24.0058 5.48493 24.1122 5.08789C24.2014 4.75511 24.5035 4.53514 24.8326 4.53514C24.8963 4.53514 24.961 4.54337 25.0255 4.56059C31.8397 6.38664 35.8982 13.4159 34.0723 20.2303Z" fill="white"/>
<path d="M27.8559 25.8915C26.871 24.1857 24.682 23.5989 22.9761 24.5839L19.9542 26.3285C19.812 26.4107 19.6463 26.4327 19.4872 26.39C19.3283 26.3475 19.1957 26.2456 19.1135 26.1032L12.3105 14.3201C12.2284 14.1777 12.2065 14.0119 12.2491 13.8531C12.2916 13.6943 12.3934 13.5616 12.5358 13.4794L15.5576 11.7348C17.2634 10.7499 17.85 8.56076 16.8652 6.85494L13.9383 1.78542C12.9535 0.0795252 10.7644 -0.506918 9.05846 0.477835L8.03185 1.07059C2.27629 4.39354 0.29729 11.7794 3.62017 17.5349L6.12046 21.8654C6.32537 22.2204 6.77919 22.342 7.13423 22.1371C7.4892 21.9321 7.61084 21.4783 7.40586 21.1233L4.90564 16.7927C2.5212 12.6628 3.25081 7.57594 6.3601 4.26716L11.2184 12.682C11.0318 12.9097 10.8938 13.1762 10.8153 13.469C10.6702 14.0108 10.7447 14.5766 11.0252 15.0623L17.8281 26.8454C18.1085 27.3311 18.5613 27.6786 19.1031 27.8237C19.3959 27.9023 19.6957 27.916 19.9862 27.8682L24.8158 36.2334C23.135 36.6317 21.3715 36.61 19.6561 36.1504C16.9294 35.4198 14.6503 33.671 13.2389 31.2263L10.7454 26.9073C10.5404 26.5523 10.0866 26.4307 9.73159 26.6357C9.37662 26.8406 9.25498 27.2945 9.45997 27.6495L11.9535 31.9684C13.5631 34.7565 16.1623 36.7508 19.2719 37.5841C20.3104 37.8623 21.3641 38 22.4111 38C24.4995 38 26.5607 37.4522 28.4178 36.38L29.4445 35.7873C30.2708 35.3101 30.862 34.5398 31.1089 33.6181C31.3559 32.6964 31.2291 31.7337 30.752 30.9074L27.8559 25.8915ZM8.77393 2.35606L9.80054 1.7633C10.2835 1.48441 10.8463 1.41041 11.3849 1.55469C11.9237 1.69904 12.3739 2.04458 12.6528 2.52757L15.5797 7.59709C16.1553 8.59416 15.8125 9.87369 14.8154 10.4494L12.4363 11.8229L7.47925 3.23706C7.88283 2.91645 8.31446 2.62137 8.77393 2.35606ZM29.675 33.2341C29.5307 33.7728 29.1851 34.223 28.7022 34.5019L27.6756 35.0947C27.2187 35.3584 26.7477 35.586 26.2661 35.7769L21.3391 27.2429L23.7183 25.8694C24.7154 25.2938 25.9949 25.6366 26.5706 26.6336L29.4665 31.6497C29.7453 32.1326 29.8194 32.6953 29.675 33.2341Z" fill="white"/>
<path d="M8.44136 23.6406C8.24544 23.6406 8.05471 23.72 7.91592 23.8581C7.77789 23.9961 7.69922 24.1868 7.69922 24.3828C7.69922 24.578 7.77789 24.7694 7.91592 24.9075C8.05471 25.0455 8.24618 25.1249 8.44136 25.1249C8.63655 25.1249 8.82802 25.0455 8.96606 24.9075C9.1041 24.7694 9.18351 24.578 9.18351 24.3828C9.18351 24.1868 9.1041 23.9961 8.96606 23.8581C8.82802 23.72 8.63655 23.6406 8.44136 23.6406Z" fill="white"/>
</g>
<defs>
<clipPath id="clip0">
<rect width="38" height="38" fill="white"/>
</clipPath>
</defs>
</svg>

<svg width="38" height="38" fill="none" xmlns="http://www.w3.org/2000/svg"><g clip-path="url(#clip0)" fill="#fff"><path d="M22.696 13.253A3.799 3.799 0 0125.38 17.9a2.215 2.215 0 00.223 1.693 2.215 2.215 0 001.93 1.115c.985 0 1.888-.658 2.155-1.653 1.178-4.397-1.44-8.932-5.837-10.11a2.232 2.232 0 00-2.73 1.577 2.233 2.233 0 001.576 2.731zm-.143-2.347a.74.74 0 01.719-.553c.065 0 .13.009.194.026a6.778 6.778 0 014.787 8.292.747.747 0 01-1.44-.386 5.285 5.285 0 00-3.733-6.465.747.747 0 01-.527-.914z"/><path d="M25.41 3.127a2.233 2.233 0 00-2.732 1.577 2.215 2.215 0 00.223 1.692c.298.516.779.885 1.354 1.039 5.23 1.401 8.344 6.796 6.943 12.025a2.215 2.215 0 00.223 1.692 2.214 2.214 0 001.93 1.115c.985 0 1.888-.657 2.155-1.652 2.038-7.605-2.491-15.45-10.096-17.488zm8.662 17.103a.746.746 0 01-1.366.18.741.741 0 01-.074-.566c1.613-6.02-1.972-12.23-7.992-13.843a.746.746 0 01.386-1.44c6.814 1.826 10.872 8.855 9.046 15.67zm-6.216 5.662a3.576 3.576 0 00-4.88-1.308l-3.022 1.744a.61.61 0 01-.467.062.61.61 0 01-.373-.287L12.31 14.32a.612.612 0 01.226-.84l3.022-1.745a3.577 3.577 0 001.307-4.88l-2.927-5.07A3.576 3.576 0 009.058.478l-1.026.593C2.276 4.394.297 11.779 3.62 17.535l2.5 4.33a.742.742 0 101.286-.742l-2.5-4.33C2.52 12.663 3.25 7.576 6.36 4.267l4.858 8.415a2.094 2.094 0 00-.403.787 2.086 2.086 0 00.21 1.593l6.803 11.783a2.096 2.096 0 002.158 1.023l4.83 8.365a10.503 10.503 0 01-5.16-.083 10.5 10.5 0 01-6.417-4.924l-2.494-4.319a.742.742 0 10-1.285.742l2.493 4.32a11.974 11.974 0 007.319 5.615 11.982 11.982 0 009.146-1.204l1.027-.593a3.55 3.55 0 001.664-2.169 3.549 3.549 0 00-.357-2.71l-2.896-5.017zM8.774 2.355L9.8 1.763a2.074 2.074 0 011.584-.208c.539.144.989.49 1.268.973l2.927 5.07a2.09 2.09 0 01-.765 2.851l-2.379 1.374L7.48 3.237c.404-.32.835-.616 1.295-.88zm20.901 30.878c-.144.539-.49.989-.973 1.268l-1.026.593c-.457.263-.928.491-1.41.682l-4.927-8.534 2.38-1.374a2.09 2.09 0 012.852.765l2.895 5.016a2.07 2.07 0 01.209 1.584z"/><path d="M8.441 23.64a.75.75 0 00-.525.218.746.746 0 000 1.05c.139.137.33.217.525.217.196 0 .387-.08.525-.218a.748.748 0 00.218-.524.746.746 0 00-.743-.742z"/></g><defs><clipPath id="clip0"><path fill="#fff" d="M0 0h38v38H0z"/></clipPath></defs></svg>
